X:1
T:MOTHRLSS
M:4/4
L:1/8
K:E
 EE E=G-G GA G| B2- A2 =G2 E2| EE E E- E4-| E8| BB B=d-d dd B| e2- =d2 B2 B2|\
 BA =G B- B4-| B8| B2 B2 =d2 B2|e-=d B B- B4| E2 E2 =G2 E2|B-A =G E- E4|\
 EE E=G-G GA G| B2- A2 =G2 E2| EE E E- E4-| E8|
